X: 28454
T: Mulqueeney's
R: reel
M: 4/4
K: Dmajor
F2 EG FD D2|FDAD FD D2|F2 EG FD D2|(3FGA Bc dBAG|
F2 EG FD D2|FDAD FD D2|F2 EG FD D2|(3FGA Bc d2 (3Bcd||
e2 ed e3d|cdef gfed|e2 ed e3d|cABc d2 (3Bcd|
e2 ed e3d|cdef g2 fg|af3 ge3|dfed cAGE||

